X:1
T:Lake Kariba, 11.11
T:Lake Kariba, 11.11
T:C. L. Naylor
T:Public Domain Courtesy of the Cyber Hymnal™
C:C. L. Naylor
Z:Public Domain
Z:Courtesy of the Cyber Hymnal™
%%score ( 1 2 ) ( 3 4 )
L:1/8
Q:1/4=93
M:6/8
K:F
V:1 treble 
V:2 treble 
V:3 bass 
V:4 bass 
V:1
 [CF]2 [CF] (FG)[FA] | c3 [CG]3 | [CF]2 [CF] (FG)[FA] | c6 | [FA]2 [FA] (AB)[Fc] | [Fd]3 [FG]3 | %6
 [FA]2 [Fc] [EA]2 [EG] | [CF]6 |] %8
V:2
 x3 C2 x | (E2 D) x3 | x3 C2 x | (FED E3) | x3 F2 x | x6 | x6 | x6 |] %8
V:3
 [F,A,]2 [C,A,] [F,A,]2 [C,A,] | B,3 B,3 | [F,A,]2 [C,A,] A,2 [F,A,] | B,6 | (CA,)[F,C] _E2 [A,E] | %5
 [B,D]3 [B,D]3 | [C,C]2 [C,A,] [C,C]2 [C,B,] | [F,A,]6 |] %8
V:4
 x6 | (G,2 C,) (E,2 C,) | x3 A,2 x | (G,3 C,3) | F,2 (F, G,) x2 | x6 | x6 | x6 |] %8

